outputs/icons/navigation/more_vertical_round.svg

<svg xmlns="http://www.w3.org/2000/svg" width="1200" height="1200" fill="none"><g clip-path="url(#a)"><path fill="#000" d="M600 400c55 0 100-45 100-100s-45-100-100-100-100 45-100 100 45 100 100 100m0 100c-55 0-100 45-100 100s45 100 100 100 100-45 100-100-45-100-100-100m0 300c-55 0-100 45-100 100s45 100 100 100 100-45 100-100-45-100-100-100"/></g><defs><clipPath id="a"><path fill="#fff" d="M0 0h1200v1200H0z"/></clipPath></defs></svg>

<svg width="1200" height="1200" viewBox="0 0 1200 1200" fill="none" xmlns="http://www.w3.org/2000/svg"><g clip-path="url(#clip0_225_2882)"><path d="M600 400C655 400 700 355 700 300C700 245 655 200 600 200C545 200 500 245 500 300C500 355 545 400 600 400ZM600 500C545 500 500 545 500 600C500 655 545 700 600 700C655 700 700 655 700 600C700 545 655 500 600 500ZM600 800C545 800 500 845 500 900C500 955 545 1000 600 1000C655 1000 700 955 700 900C700 845 655 800 600 800Z" fill="black"/></g><defs><clipPath id="clip0_225_2882"><path width="24" fill="white" d="M0 0H1200V1200H0V0z"/></clipPath></defs></svg>
